X: 15483
T: Glendaruel Highlanders
R: jig
M: 6/8
K: Amajor
|:cB|ABA ABc|ece f2e|cBA faf|e2e efa|
ABA ABc|ece f2e|fac edB|A3 A:|
ed|c2A ceB|c2A Ace|f2e faf|e2e efa|
c2A ceB|c2A Ace|fec edB|A3 Aed|
c2A ceB|c2A Ace|f2e faf|e3 efg|
acc cde|fBB B2e|fac edB|A3 A||

